X:1
T:Beaufort, CMD
T:A. A. Wild, 1894
T:Beaufort, CMD
T:Public Domain
C:A. A. Wild, 1894
Z:Public Domain
%%score ( 1 2 ) ( 3 4 )
L:1/8
M:4/4
K:Eb
V:1 treble 
V:2 treble 
V:3 bass 
V:4 bass 
V:1
 [EG]2 | [E^F]2 [EG]2 [EA]2 [EG]2 | [DG]3 [DF] E2 [EB]2 | [E=A]2 [EB]2 [^Fd]2 [Fc]2 | %4
 (G4 D2) [FB]2 | [EB]2 [Ee]2 [Ed]2 [Ec]2 | [FB]3 [FA] [EG]2 [EG]2 | [EG]2 [EF]2 [Ec]2 [Ed]2 | %8
 (D2 E2 =E2) [FB]2 | [EB]2 [_DE]2 [DF]2 [DE]2 | [_DB]3 [CA] [CA]2 [Ec]2 | [Ec]2 [EF]2 [EG]2 [EF]2 | %12
 (D4 E2) [FB]2 | [EB]2 [Ee]2 [Ed]2 [Ec]2 | G2 z A [EG]2 [Ec]2 | [EF]2 [EG]2 [DA]2 [B,D]2 | %16
 [B,E]6 |] %17
V:2
 x2 | x8 | x4 E2 x2 | x8 | B6 x2 | x8 | x8 | x8 | B6 x2 | x8 | x8 | x8 | B6 x2 | x8 | B3 F2 x3 | %15
 x8 | x6 |] %17
V:3
 [E,B,]2 | [E,=A,]2 [E,B,]2 [E,C]2 [E,B,]2 | [B,,B,]3 [B,,A,] [E,G,]2 [E,G,]2 | %3
 [E,^F,]2 [E,G,]2 [E,=A,]2 [E,A,]2 | (E,4 F,2) [A,B,]2 | [G,B,]2 [G,B,]2 A,2 A,2 | %6
 F,2 z D, [E,B,]2 [E,B,]2 | [F,=A,]2 [F,A,]2 [F,G,]2 [F,A,]2 | (B,,2 C,2 ^C,2) [D,A,]2 | %9
 [E,G,]2 [E,B,]2 [E,A,]2 [E,G,]2 | [A,,G,]3 [A,,A,] [A,,A,]2 A,2 | %11
 [F,=A,]2 [F,C]2 [F,B,]2 [F,A,]2 | (B,,4 C,2) [D,A,]2 | [E,G,]2 [G,B,]2 A,2 [A,C]2 | %14
 [B,E]2 [=B,D]2 [CE]2 [=A,C]2 | B,2 [B,,G,]2 [B,,F,]2 [B,,A,]2 | [E,G,]6 |] %17
V:4
 x2 | x8 | x8 | x8 | B,6 x2 | x4 A,2 A,2 | D,3 B,2 x3 | x8 | B,6 x2 | x8 | x6 A,2 | x8 | B,6 x2 | %13
 x4 A,2 x2 | x8 | B,2 x6 | x6 |] %17

